frontend/src/assets/drier.svg

<?xml version="1.0" encoding="UTF-8" standalone="no"?>
<svg
   id="svg"
   width="400"
   height="400"
   viewBox="0 0 400 400"
   version="1.1"
   xmlns="http://www.w3.org/2000/svg"
   xmlns:svg="http://www.w3.org/2000/svg">
  <defs
     id="defs1" />
  <g
     id="svgg"
     transform="matrix(1.25,0,0,1.25,-50,-50.008969)">
    <path
       id="path0"
       d="m 85.565,51.612 c -4.212,2.101 -7.884,5.804 -9.988,10.073 l -1.749,3.549 V 200 334.766 l 1.823,3.702 c 2.231,4.529 7.576,9.378 11.698,10.613 4.409,1.321 220.893,1.321 225.302,0 4.122,-1.235 9.467,-6.084 11.698,-10.613 l 1.823,-3.702 V 200 c 0,-123.662 -0.107,-135 -1.291,-137.609 -1.897,-4.177 -6.47,-8.886 -10.442,-10.753 L 310.955,50 199.813,50.031 C 90.579,50.062 88.619,50.089 85.565,51.612 m 225.072,9.764 c 5.475,4.088 5.354,3.449 5.616,29.695 l 0.238,23.773 H 200.042 83.594 L 83.598,92.773 C 83.604,65.449 84.523,62.008 92.32,60.144 99.195,58.499 308.365,59.68 310.637,61.376 M 96.605,70.179 c -2.152,2.378 -1.918,32.321 0.27,34.509 2.45,2.449 92.863,2.449 95.313,0 2.299,-2.3 2.416,-32.579 0.133,-34.645 -2.316,-2.096 -93.813,-1.967 -95.716,0.136 m 117.809,4.357 c -8.047,3.506 -10.377,14.607 -4.525,21.562 8.281,9.842 23.6,4.73 24.291,-8.106 0.58,-10.759 -9.774,-17.807 -19.766,-13.456 m 34.375,0 c -8.047,3.506 -10.377,14.607 -4.525,21.562 8.281,9.842 23.6,4.73 24.291,-8.106 0.58,-10.759 -9.774,-17.807 -19.766,-13.456 m 34.416,0.132 c -13.349,6.961 -8.753,26.336 6.248,26.336 13.945,0 19.098,-18.937 7.015,-25.78 -3.72,-2.107 -9.799,-2.362 -13.263,-0.556 m -99.611,12.441 v 8.985 h -39.063 -39.062 v -8.985 -8.984 h 39.062 39.063 v 8.984 m 39.687,-2.578 c 1.467,1.467 1.102,4.328 -0.715,5.601 -3.377,2.365 -7.251,-1.508 -4.885,-4.886 1.273,-1.816 4.133,-2.182 5.6,-0.715 m 34.375,0 c 1.467,1.467 1.102,4.328 -0.715,5.601 -3.377,2.365 -7.251,-1.508 -4.885,-4.886 1.273,-1.816 4.133,-2.182 5.6,-0.715 m 34.375,0 c 2.547,2.547 -0.742,7.704 -3.853,6.039 -0.783,-0.419 -1.766,-1.403 -2.185,-2.186 -1.665,-3.11 3.491,-6.4 6.038,-3.853 m 24.191,144.318 c -0.231,116.464 0.334,105.355 -5.585,109.775 -3.41,2.545 -217.864,2.545 -221.274,0 -5.919,-4.42 -5.354,6.689 -5.585,-109.775 L 83.571,125 H 200 316.429 l -0.207,103.849 M 189.745,157.06 c -28.97,3.384 -56.22,26.055 -63.347,52.704 -0.741,2.769 -1.482,3.875 -2.951,4.405 -7.991,2.88 -10.166,6.74 -10.166,18.046 0,11.513 2.415,16.14 9.67,18.535 2.18,0.719 2.684,1.392 3.539,4.731 9.247,36.079 52.885,60.505 90.992,50.931 50.94,-12.798 73.914,-72.69 44.678,-116.469 -15.561,-23.3 -43.979,-36.204 -72.415,-32.883 m 17.286,10.15 c 53.029,6.835 76.266,70.178 40.318,109.902 -32.575,35.997 -94.016,23.557 -110.2,-22.313 l -1.142,-3.236 h 4.175 4.176 l 2.708,5.664 c 26.995,56.45 111.575,35.151 108.975,-27.442 -2.432,-58.523 -82.51,-75.779 -108.311,-23.34 l -3.363,6.836 h -4.18 -4.18 l 1.119,-3.171 c 9.912,-28.095 40.263,-46.721 69.905,-42.9 m 1.853,19.111 c 36.495,7.732 49.719,52.913 23.237,79.394 -26.637,26.638 -71.647,13.077 -79.387,-23.918 -6.855,-32.763 23.2,-62.457 56.15,-55.476 m -32.321,20.71 c -0.86,0.86 -1.563,2.255 -1.563,3.102 0,0.846 -1.055,3.615 -2.344,6.151 -3.211,6.319 -3.18,11.073 0.116,18.224 l 2.459,5.336 -2.459,5.335 c -3.952,8.574 -2.968,14.196 2.485,14.196 2.586,0 5.212,-2.509 5.212,-4.98 0,-1.02 0.966,-3.569 2.146,-5.664 3.04,-5.394 3.04,-12.381 0,-17.775 -2.65,-4.704 -2.686,-6.709 -0.196,-10.958 5.128,-8.75 0.398,-19.222 -5.856,-12.967 m 21.448,0.355 c -1.054,1.055 -1.917,2.644 -1.917,3.53 0,0.887 -0.965,3.452 -2.144,5.7 -2.985,5.693 -2.984,11.953 0.004,17.271 2.667,4.748 2.676,6.522 0.058,11.647 -2.633,5.154 -2.958,11.078 -0.699,12.731 3.279,2.399 8.213,0.461 8.274,-3.248 0.014,-0.826 1.068,-3.602 2.344,-6.169 1.732,-3.486 2.319,-5.765 2.319,-9.004 0,-3.24 -0.587,-5.518 -2.319,-9.005 -2.854,-5.744 -2.853,-5.246 -0.025,-10.917 4.95,-9.924 0.646,-19.076 -5.895,-12.536 m 21.52,-0.355 c -0.859,0.86 -1.562,2.273 -1.562,3.14 0,0.868 -1.055,3.554 -2.344,5.969 -3.253,6.096 -3.214,11.144 0.141,18.423 l 2.484,5.39 -2.484,5.038 c -4.089,8.291 -3.047,14.384 2.46,14.384 2.646,0 5.212,-2.527 5.212,-5.134 0,-1.105 0.966,-3.654 2.148,-5.664 3.046,-5.183 3.046,-12.212 -0.002,-17.621 -2.651,-4.704 -2.687,-6.709 -0.197,-10.958 5.128,-8.75 0.399,-19.222 -5.856,-12.967 m -77.734,25.391 v 8.984 h -7.443 c -10.284,0 -10.916,-0.5 -10.916,-8.638 0,-8.729 0.692,-9.33 10.742,-9.33 h 7.617 v 8.984"
       stroke="none"
       fill="#000000"
       fill-rule="evenodd" />
  </g>
</svg>

<svg id="svg" xmlns="http://www.w3.org/2000/svg" xmlns:xlink="http://www.w3.org/1999/xlink" width="400" height="400" viewBox="0, 0, 400,400"><g id="svgg"><path id="path0" d="M85.565 51.612 C 81.353 53.713,77.681 57.416,75.577 61.685 L 73.828 65.234 73.828 200.000 L 73.828 334.766 75.651 338.468 C 77.882 342.997,83.227 347.846,87.349 349.081 C 91.758 350.402,308.242 350.402,312.651 349.081 C 316.773 347.846,322.118 342.997,324.349 338.468 L 326.172 334.766 326.172 200.000 C 326.172 76.338,326.065 65.000,324.881 62.391 C 322.984 58.214,318.411 53.505,314.439 51.638 L 310.955 50.000 199.813 50.031 C 90.579 50.062,88.619 50.089,85.565 51.612 M310.637 61.376 C 316.112 65.464,315.991 64.825,316.253 91.071 L 316.491 114.844 200.042 114.844 L 83.594 114.844 83.598 92.773 C 83.604 65.449,84.523 62.008,92.320 60.144 C 99.195 58.499,308.365 59.680,310.637 61.376 M96.605 70.179 C 94.453 72.557,94.687 102.500,96.875 104.688 C 99.325 107.137,189.738 107.137,192.188 104.688 C 194.487 102.388,194.604 72.109,192.321 70.043 C 190.005 67.947,98.508 68.076,96.605 70.179 M214.414 74.536 C 206.367 78.042,204.037 89.143,209.889 96.098 C 218.170 105.940,233.489 100.828,234.180 87.992 C 234.760 77.233,224.406 70.185,214.414 74.536 M248.789 74.536 C 240.742 78.042,238.412 89.143,244.264 96.098 C 252.545 105.940,267.864 100.828,268.555 87.992 C 269.135 77.233,258.781 70.185,248.789 74.536 M283.205 74.668 C 269.856 81.629,274.452 101.004,289.453 101.004 C 303.398 101.004,308.551 82.067,296.468 75.224 C 292.748 73.117,286.669 72.862,283.205 74.668 M183.594 87.109 L 183.594 96.094 144.531 96.094 L 105.469 96.094 105.469 87.109 L 105.469 78.125 144.531 78.125 L 183.594 78.125 183.594 87.109 M223.281 84.531 C 224.748 85.998,224.383 88.859,222.566 90.132 C 219.189 92.497,215.315 88.624,217.681 85.246 C 218.954 83.430,221.814 83.064,223.281 84.531 M257.656 84.531 C 259.123 85.998,258.758 88.859,256.941 90.132 C 253.564 92.497,249.690 88.624,252.056 85.246 C 253.329 83.430,256.189 83.064,257.656 84.531 M292.031 84.531 C 294.578 87.078,291.289 92.235,288.178 90.570 C 287.395 90.151,286.412 89.167,285.993 88.384 C 284.328 85.274,289.484 81.984,292.031 84.531 M316.222 228.849 C 315.991 345.313,316.556 334.204,310.637 338.624 C 307.227 341.169,92.773 341.169,89.363 338.624 C 83.444 334.204,84.009 345.313,83.778 228.849 L 83.571 125.000 200.000 125.000 L 316.429 125.000 316.222 228.849 M189.745 157.060 C 160.775 160.444,133.525 183.115,126.398 209.764 C 125.657 212.533,124.916 213.639,123.447 214.169 C 115.456 217.049,113.281 220.909,113.281 232.215 C 113.281 243.728,115.696 248.355,122.951 250.750 C 125.131 251.469,125.635 252.142,126.490 255.481 C 135.737 291.560,179.375 315.986,217.482 306.412 C 268.422 293.614,291.396 233.722,262.160 189.943 C 246.599 166.643,218.181 153.739,189.745 157.060 M207.031 167.210 C 260.060 174.045,283.297 237.388,247.349 277.112 C 214.774 313.109,153.333 300.669,137.149 254.799 L 136.007 251.563 140.182 251.563 L 144.358 251.563 147.066 257.227 C 174.061 313.677,258.641 292.378,256.041 229.785 C 253.609 171.262,173.531 154.006,147.730 206.445 L 144.367 213.281 140.187 213.281 L 136.007 213.281 137.126 210.110 C 147.038 182.015,177.389 163.389,207.031 167.210 M208.884 186.321 C 245.379 194.053,258.603 239.234,232.121 265.715 C 205.484 292.353,160.474 278.792,152.734 241.797 C 145.879 209.034,175.934 179.340,208.884 186.321 M176.563 207.031 C 175.703 207.891,175.000 209.286,175.000 210.133 C 175.000 210.979,173.945 213.748,172.656 216.284 C 169.445 222.603,169.476 227.357,172.772 234.508 L 175.231 239.844 172.772 245.179 C 168.820 253.753,169.804 259.375,175.257 259.375 C 177.843 259.375,180.469 256.866,180.469 254.395 C 180.469 253.375,181.435 250.826,182.615 248.731 C 185.655 243.337,185.655 236.350,182.615 230.956 C 179.965 226.252,179.929 224.247,182.419 219.998 C 187.547 211.248,182.817 200.776,176.563 207.031 M198.011 207.386 C 196.957 208.441,196.094 210.030,196.094 210.916 C 196.094 211.803,195.129 214.368,193.950 216.616 C 190.965 222.309,190.966 228.569,193.954 233.887 C 196.621 238.635,196.630 240.409,194.012 245.534 C 191.379 250.688,191.054 256.612,193.313 258.265 C 196.592 260.664,201.526 258.726,201.587 255.017 C 201.601 254.191,202.655 251.415,203.931 248.848 C 205.663 245.362,206.250 243.083,206.250 239.844 C 206.250 236.604,205.663 234.326,203.931 230.839 C 201.077 225.095,201.078 225.593,203.906 219.922 C 208.856 209.998,204.552 200.846,198.011 207.386 M219.531 207.031 C 218.672 207.891,217.969 209.304,217.969 210.171 C 217.969 211.039,216.914 213.725,215.625 216.140 C 212.372 222.236,212.411 227.284,215.766 234.563 L 218.250 239.953 215.766 244.991 C 211.677 253.282,212.719 259.375,218.226 259.375 C 220.872 259.375,223.438 256.848,223.438 254.241 C 223.438 253.136,224.404 250.587,225.586 248.577 C 228.632 243.394,228.632 236.365,225.584 230.956 C 222.933 226.252,222.897 224.247,225.387 219.998 C 230.515 211.248,225.786 200.776,219.531 207.031 M141.797 232.422 L 141.797 241.406 134.354 241.406 C 124.070 241.406,123.438 240.906,123.438 232.768 C 123.438 224.039,124.130 223.438,134.180 223.438 L 141.797 223.438 141.797 232.422 " stroke="none" fill="#000000" fill-rule="evenodd"></path></g></svg>
